public/assets/img/casestudies/wellmee/Step2.svg

<svg fill="none" height="49" viewBox="0 0 48 49" width="48" xmlns="http://www.w3.org/2000/svg"><path d="m14.8378 31.8577c-.3725.3747-.5815.8816-.5815 1.41 0 .5283.209 1.0352.5815 1.41.186.1874.4072.3362.6509.4377.2437.1016.5051.1538.7691.1538.2641 0 .5255-.0522.7692-.1538.2437-.1015.4649-.2503.6508-.4377.3725-.3748.5816-.8817.5816-1.41 0-.5284-.2091-1.0353-.5816-1.41-.1859-.1875-.4071-.3363-.6508-.4378-.2437-.1016-.5051-.1538-.7692-.1538-.264 0-.5254.0522-.7691.1538-.2437.1015-.4649.2503-.6509.4378zm0-16.98c-.3725.3747-.5815.8816-.5815 1.41 0 .5283.209 1.0352.5815 1.41.186.1874.4072.3362.6509.4377.2437.1016.5051.1538.7691.1538.2641 0 .5255-.0522.7692-.1538.2437-.1015.4649-.2503.6508-.4377.3725-.3748.5816-.8817.5816-1.41 0-.5284-.2091-1.0353-.5816-1.41-.1859-.1875-.4071-.3363-.6508-.4378-.2437-.1016-.5051-.1538-.7692-.1538-.264 0-.5254.0522-.7691.1538-.2437.1015-.4649.2503-.6509.4378zm9.9 20c-.3955 0-.7822.1172-1.1111.337s-.5852.5321-.7366.8976c-.1514.3654-.191.7676-.1138 1.1555.0771.388.2676.7444.5473 1.0241s.6361.4702 1.0241.5473c.3879.0772.7901.0376 1.1555-.1138.3655-.1514.6778-.4077.8976-.7366.2197-.3289.337-.7156.337-1.1111.0136-.271-.0281-.5418-.1225-.7962-.0944-.2543-.2396-.4867-.4267-.6832-.1871-.1964-.4122-.3527-.6616-.4594s-.5179-.1616-.7892-.1612zm-12-12c-.3955 0-.7822.1172-1.1111.337s-.5852.5321-.7366.8976c-.1514.3654-.191.7676-.1138 1.1555.0771.388.2676.7444.5473 1.0241s.6361.4702 1.0241.5473c.3879.0772.7901.0376 1.1555-.1138.3655-.1514.6778-.4077.8976-.7366.2197-.3289.337-.7156.337-1.1111.0136-.271-.0281-.5418-.1225-.7962-.0944-.2543-.2396-.4867-.4267-.6832-.1871-.1964-.4122-.3527-.6616-.4594s-.5179-.1616-.7892-.1612zm12-12c-.3955 0-.7822.1172-1.1111.337s-.5852.5321-.7366.8976c-.1514.3654-.191.7676-.1138 1.1555.0771.388.2676.7444.5473 1.0241s.6361.4702 1.0241.5473c.3879.0772.7901.0376 1.1555-.1138.3655-.1514.6778-.4077.8976-.7366.2197-.3289.337-.7156.337-1.1111.0136-.271-.0281-.5418-.1225-.7962-.0944-.2543-.2396-.4867-.4267-.6832-.1871-.1964-.4122-.3527-.6616-.4594s-.5179-.1616-.7892-.1612zm7.08 4.1c-.2809.2792-.4725.6355-.5507 1.0238-.0781.3883-.0392.791.1118 1.1572.1511.3661.4074.6792.7366.8995.3291.2203.7163.3379 1.1123.3379.3961 0 .7833-.1176 1.1124-.3379.3292-.2203.5855-.5334.7365-.8995.1511-.3662.19-.7689.1118-1.1572-.0781-.3883-.2698-.7446-.5507-1.0238-.3613-.3861-.8608-.6134-1.3893-.6321-.5285-.0188-1.0429.1725-1.4307.5321zm12.6 0c-1.8285-3.6555-4.6391-6.72921-8.1168-8.87665-3.4776-2.14743-7.4847-3.28363-11.5719-3.28119-4.0873.00244-8.093 1.14343-11.5681 3.29502-3.47506 2.15159-6.28205 5.22872-8.1062 8.88632-1.82414 3.6576-2.59332 7.751-2.22127 11.8213.37205 4.0702 1.87062 7.9564 4.32765 11.2226 2.45703 3.2663 5.77542 5.7835 9.58292 7.2694 3.8076 1.4859 7.9538 1.8818 11.9737 1.1432 1.0109-.1903 1.9738-.5801 2.8323-1.1467s1.5954-1.2986 2.1677-2.1533c.6167-.9293 1.0422-1.972 1.2517-3.0673.2095-1.0954.1987-2.2216-.0317-3.3127-.1259-.6594-.1928-1.3288-.2-2 .0088-1.9381.5806-3.8319 1.6458-5.451s2.5779-2.8938 4.3542-3.6691c.9578-.4288 1.8175-1.0493 2.5261-1.8233.7086-.7739 1.2511-1.6849 1.5939-2.6767.3468-1.0134.4866-2.0861.411-3.1546-.0756-1.0684-.365-2.1108-.851-3.0653zm-3.4 4.88c-.1706.4786-.4356.9181-.7791 1.2926-.3435.3744-.7587.6762-1.2209.8874-2.46 1.1011-4.5499 2.889-6.0186 5.149-1.4688 2.2599-2.254 4.8957-2.2614 7.591.003.9401.0968 1.8778.28 2.8.1222.5635.1303 1.1459.0238 1.7127-.1065.5667-.3254 1.1064-.6438 1.5873-.2693.4208-.6238.7805-1.0406 1.0561-.4168.2755-.8867.4608-1.3794.5439-1.0682.2007-2.153.3011-3.24.3-2.4116.0011-4.7989-.4824-7.0201-1.4218s-4.2309-2.3155-5.9099-4.0467c-1.679-1.7313-2.99299-3.7822-3.86393-6.0311-.87093-2.249-1.28106-4.65-1.20603-7.0604.15523-4.4945 1.97801-8.7701 5.11326-11.9941 3.1353-3.22401 7.3584-5.16539 11.8467-5.44595h1.02c3.3516.00084 6.6363.93737 9.4843 2.70413 2.848 1.76672 5.1462 4.29352 6.6357 7.29592.4585.9499.5232 2.0425.18 3.04zm-16.28 2.92c-.3955 0-.7822.1172-1.1111.337s-.5852.5321-.7366.8976c-.1514.3654-.191.7676-.1138 1.1555.0771.388.2676.7444.5473 1.0241s.6361.4702 1.0241.5473c.3879.0772.7901.0376 1.1555-.1138.3655-.1514.6778-.4077.8976-.7366.2197-.3289.337-.7156.337-1.1111 0-.5305-.2107-1.0392-.5857-1.4143-.3751-.375-.8838-.5857-1.4143-.5857z" fill="#00ceba"/></svg>

<svg width="48" height="49" viewBox="0 0 48 49" fill="none" xmlns="http://www.w3.org/2000/svg">
<path d="M14.8378 31.8577C14.4653 32.2324 14.2563 32.7393 14.2563 33.2677C14.2563 33.796 14.4653 34.3029 14.8378 34.6777C15.0238 34.8651 15.245 35.0139 15.4887 35.1154C15.7324 35.217 15.9938 35.2692 16.2578 35.2692C16.5219 35.2692 16.7833 35.217 17.027 35.1154C17.2707 35.0139 17.4919 34.8651 17.6778 34.6777C18.0503 34.3029 18.2594 33.796 18.2594 33.2677C18.2594 32.7393 18.0503 32.2324 17.6778 31.8577C17.4919 31.6702 17.2707 31.5214 17.027 31.4199C16.7833 31.3183 16.5219 31.2661 16.2578 31.2661C15.9938 31.2661 15.7324 31.3183 15.4887 31.4199C15.245 31.5214 15.0238 31.6702 14.8378 31.8577ZM14.8378 14.8777C14.4653 15.2524 14.2563 15.7593 14.2563 16.2877C14.2563 16.816 14.4653 17.3229 14.8378 17.6977C15.0238 17.8851 15.245 18.0339 15.4887 18.1354C15.7324 18.237 15.9938 18.2892 16.2578 18.2892C16.5219 18.2892 16.7833 18.237 17.027 18.1354C17.2707 18.0339 17.4919 17.8851 17.6778 17.6977C18.0503 17.3229 18.2594 16.816 18.2594 16.2877C18.2594 15.7593 18.0503 15.2524 17.6778 14.8777C17.4919 14.6902 17.2707 14.5414 17.027 14.4399C16.7833 14.3383 16.5219 14.2861 16.2578 14.2861C15.9938 14.2861 15.7324 14.3383 15.4887 14.4399C15.245 14.5414 15.0238 14.6902 14.8378 14.8777ZM24.7378 34.8777C24.3423 34.8777 23.9556 34.9949 23.6267 35.2147C23.2978 35.4345 23.0415 35.7468 22.8901 36.1123C22.7387 36.4777 22.6991 36.8799 22.7763 37.2678C22.8534 37.6558 23.0439 38.0122 23.3236 38.2919C23.6033 38.5716 23.9597 38.7621 24.3477 38.8392C24.7356 38.9164 25.1378 38.8768 25.5032 38.7254C25.8687 38.574 26.181 38.3177 26.4008 37.9888C26.6205 37.6599 26.7378 37.2732 26.7378 36.8777C26.7514 36.6067 26.7097 36.3359 26.6153 36.0815C26.5209 35.8272 26.3757 35.5948 26.1886 35.3983C26.0015 35.2019 25.7764 35.0456 25.527 34.9389C25.2776 34.8322 25.0091 34.7773 24.7378 34.7777V34.8777ZM12.7378 22.8777C12.3423 22.8777 11.9556 22.9949 11.6267 23.2147C11.2978 23.4345 11.0415 23.7468 10.8901 24.1123C10.7387 24.4777 10.6991 24.8799 10.7763 25.2678C10.8534 25.6558 11.0439 26.0122 11.3236 26.2919C11.6033 26.5716 11.9597 26.7621 12.3477 26.8392C12.7356 26.9164 13.1378 26.8768 13.5032 26.7254C13.8687 26.574 14.181 26.3177 14.4008 25.9888C14.6205 25.6599 14.7378 25.2732 14.7378 24.8777C14.7514 24.6067 14.7097 24.3359 14.6153 24.0815C14.5209 23.8272 14.3757 23.5948 14.1886 23.3983C14.0015 23.2019 13.7764 23.0456 13.527 22.9389C13.2776 22.8322 13.0091 22.7773 12.7378 22.7777V22.8777ZM24.7378 10.8777C24.3423 10.8777 23.9556 10.9949 23.6267 11.2147C23.2978 11.4345 23.0415 11.7468 22.8901 12.1123C22.7387 12.4777 22.6991 12.8799 22.7763 13.2678C22.8534 13.6558 23.0439 14.0122 23.3236 14.2919C23.6033 14.5716 23.9597 14.7621 24.3477 14.8392C24.7356 14.9164 25.1378 14.8768 25.5032 14.7254C25.8687 14.574 26.181 14.3177 26.4008 13.9888C26.6205 13.6599 26.7378 13.2732 26.7378 12.8777C26.7514 12.6067 26.7097 12.3359 26.6153 12.0815C26.5209 11.8272 26.3757 11.5948 26.1886 11.3983C26.0015 11.2019 25.7764 11.0456 25.527 10.9389C25.2776 10.8322 25.0091 10.7773 24.7378 10.7777V10.8777ZM31.8178 14.9777C31.5369 15.2569 31.3453 15.6132 31.2671 16.0015C31.189 16.3898 31.2279 16.7925 31.3789 17.1587C31.53 17.5248 31.7863 17.8379 32.1155 18.0582C32.4446 18.2785 32.8318 18.3961 33.2278 18.3961C33.6239 18.3961 34.0111 18.2785 34.3402 18.0582C34.6694 17.8379 34.9257 17.5248 35.0767 17.1587C35.2278 16.7925 35.2667 16.3898 35.1885 16.0015C35.1104 15.6132 34.9187 15.2569 34.6378 14.9777C34.2765 14.5916 33.777 14.3643 33.2485 14.3456C32.72 14.3268 32.2056 14.5181 31.8178 14.8777V14.9777ZM44.4178 14.9777C42.5893 11.3222 39.7787 8.24849 36.301 6.10105C32.8234 3.95362 28.8163 2.81742 24.7291 2.81986C20.6418 2.8223 16.6361 3.96329 13.161 6.11488C9.68594 8.26647 6.87895 11.3436 5.0548 15.0012C3.23066 18.6588 2.46148 22.7522 2.83353 26.8225C3.20558 30.8927 4.70415 34.7789 7.16118 38.0451C9.61821 41.3114 12.9366 43.8286 16.7441 45.3145C20.5517 46.8004 24.6979 47.1963 28.7178 46.4577C29.7287 46.2674 30.6916 45.8776 31.5501 45.311C32.4086 44.7444 33.1455 44.0124 33.7178 43.1577C34.3345 42.2284 34.76 41.1857 34.9695 40.0904C35.179 38.995 35.1682 37.8688 34.9378 36.7777C34.8119 36.1183 34.745 35.4489 34.7378 34.7777C34.7466 32.8396 35.3184 30.9458 36.3836 29.3267C37.4488 27.7076 38.9615 26.4329 40.7378 25.6576C41.6956 25.2288 42.5553 24.6083 43.2639 23.8343C43.9725 23.0604 44.515 22.1494 44.8578 21.1576C45.2046 20.1442 45.3444 19.0715 45.2688 18.003C45.1932 16.9346 44.9038 15.8922 44.4178 14.9377V14.9777ZM41.0178 19.8577C40.8472 20.3363 40.5822 20.7758 40.2387 21.1503C39.8952 21.5247 39.48 21.8265 39.0178 22.0377C36.5578 23.1388 34.4679 24.9267 32.9992 27.1867C31.5304 29.4466 30.7452 32.0824 30.7378 34.7777C30.7408 35.7178 30.8346 36.6555 31.0178 37.5777C31.14 38.1412 31.1481 38.7236 31.0416 39.2904C30.9351 39.8571 30.7162 40.3968 30.3978 40.8777C30.1285 41.2985 29.774 41.6582 29.3572 41.9338C28.9404 42.2093 28.4705 42.3946 27.9778 42.4777C26.9096 42.6784 25.8248 42.7788 24.7378 42.7777C22.3262 42.7788 19.9389 42.2953 17.7177 41.3559C15.4965 40.4165 13.4868 39.0404 11.8078 37.3092C10.1288 35.5779 8.81481 33.527 7.94387 31.2781C7.07294 29.0291 6.66281 26.6281 6.73784 24.2177C6.89307 19.7232 8.71585 15.4476 11.8511 12.2236C14.9864 8.99959 19.2095 7.05821 23.6978 6.77765H24.7178C28.0694 6.77849 31.3541 7.71502 34.2021 9.48178C37.0501 11.2485 39.3483 13.7753 40.8378 16.7777C41.2963 17.7276 41.361 18.8202 41.0178 19.8177V19.8577ZM24.7378 22.7777C24.3423 22.7777 23.9556 22.8949 23.6267 23.1147C23.2978 23.3345 23.0415 23.6468 22.8901 24.0123C22.7387 24.3777 22.6991 24.7799 22.7763 25.1678C22.8534 25.5558 23.0439 25.9122 23.3236 26.1919C23.6033 26.4716 23.9597 26.6621 24.3477 26.7392C24.7356 26.8164 25.1378 26.7768 25.5032 26.6254C25.8687 26.474 26.181 26.2177 26.4008 25.8888C26.6205 25.5599 26.7378 25.1732 26.7378 24.7777C26.7378 24.2472 26.5271 23.7385 26.1521 23.3634C25.777 22.9884 25.2683 22.7777 24.7378 22.7777Z" fill="#00CEBA"/>
</svg>
